packages/merlin-www-assets/imports/brides/icons/gallery-zoom-close.svg

<svg viewBox="0 0 16 16" xmlns="http://www.w3.org/2000/svg"><path d="m15 8.00008c0-3.86611525-3.1338847-7-7-7-3.86611525 0-7 3.13388475-7 7 0 3.8661153 3.13388475 7 7 7 3.8661153 0 7-3.1338847 7-7zm-7.70710678 0-2.56364665 2.5636467.70710678.7071067 2.56364665-2.56364662 2.5635667 2.56356662.7071067-.7071067-2.56356662-2.5635667 2.56364662-2.56364665-.7071067-.70710678-2.5636467 2.56364665-2.56372665-2.56372665-.70710678.70710678zm8.70710678 0c0 4.4184-3.5816 8-8 8s-8-3.5816-8-8 3.5816-8 8-8 8 3.5816 8 8z"/></svg>

<svg xmlns="http://www.w3.org/2000/svg" viewBox="0 0 16 16"><title>zoom-close</title>
  <path d="M15,8.00008 C15,4.13396475 11.8661153,1.00008 8,1.00008 C4.13388475,1.00008 1,4.13396475 1,8.00008 C1,11.8661953 4.13388475,15.00008 8,15.00008 C11.8661153,15.00008 15,11.8661953 15,8.00008 Z M7.29289322,8.00008 L4.72924657,10.5637267 L5.43635335,11.2708334 L8,8.70718678 L10.5635667,11.2707534 L11.2706734,10.5636467 L8.70710678,8.00008 L11.2707534,5.43643335 L10.5636467,4.72932657 L8,7.29297322 L5.43627335,4.72924657 L4.72916657,5.43635335 L7.29289322,8.00008 Z M16,8.00008 C16,12.41848 12.4184,16.00008 8,16.00008 C3.5816,16.00008 0,12.41848 0,8.00008 C0,3.58168 3.5816,7.99999998e-05 8,7.99999998e-05 C12.4184,7.99999998e-05 16,3.58168 16,8.00008 Z"/>
</svg>
